!!!!SEGMENT: pl-kk--kk-i-215_anonim--ne-timeas-maria.krn
!!!cenid: 16xx:770
!!!COM: Anonim
!!!COM-rismID:
!!!CDT:
!!!CNT:
!!!OTL: Ne timeas Maria
!!!PDT:
!!!AGN: Sacred
!!!SMS-siglum: PL-Kk
!!!SMS-shelfmark: Kk.I.215
!!!SMS-shelfwork: W
!!!SMS-variant:
!!!SMS-altvar:
!!!NIFC-rismSourceID: 1001143684
!!!NIFC-islandoraID: pl-kk:4268
!!!URL-pdf-islandora: https://repozytorium.nifc.pl/islandora/object/pl-kk%3A4268/datastream/PDF/view
!!!URL-scan: https://polish.musicsources.pl/pl/lokalizacje/galeria/rekopisy/5840 @EN{Scan on Polish Music Herritage in Open Access Website} @PL{Skany w portalu Dziedzictwo Muzyki Polskiej w otwartym dostępie}
!!!ONB-nifc:
!!!AIN: 1 empty
!!!key:
**kern	**text
*Iempty	*
*I"otraBasſo.	*
*I'B	*
*clefF3	*
*k[b-]	*
*F:	*
*M2/2	*
*met(c|)	*
=1-	=1-
!LO:TX:t=P:problem=znaki BB- B-	!
!LO:TX:t=P:problem=klucz F4 poprawiony na F3	!
00r	.
=2-	=2-
.	.
=3-	=3-
.	.
=4-	=4-
.	.
=5-	=5-
1F	Ne
=6-	=6-
1F	ti-
=7-	=7-
1B-	.
=8-	=8-
1G	-me-
=9-	=9-
1F	-as
=10-	=10-
2r	.
2.F/	ne
=11-	=11-
.	.
4E/	.
4D/	.
4C/	.
=12-	=12-
2BB-/	.
1B-\	ti-
=13-	=13-
.	.
*2\right	*
2A\	-me-
=14-	=14-
2A\	-as
2A\	Ma-
=15-	=15-
4G\	.
4A\	-ri-
1B-\	.
=16-	=16-
.	.
2A\	.
=17-	=17-
2.B-\	.
4c\	.
=18-	=18-
2d\	.
2B-\	-a
=19-	=19-
!LO:TX:a:t=P:problem=kreska pseudotaktowa	!
1B-	.
=20-	=20-
00r	.
=21-	=21-
.	.
=22-	=22-
.	.
=23-	=23-
.	.
=24-	=24-
1r	.
=25-	=25-
2r	.
1c\	in-
=26-	=26-
.	.
2c\	-ve-
!LO:LB:g=original	!
=27-	=27-
2G\	-ni-
2A\	-sti
=28-	=28-
2B-\	Gra-
2G\	-(ti)-
=29-	=29-
!LO:TX:a:t=P:problem=kreska pseudotaktowa	!
1F	-am
=30-	=30-
00r	.
=31-	=31-
.	.
=32-	=32-
.	.
=33-	=33-
.	.
=34-	=34-
2.G\	in-
4G\	-ve-
=35-	=35-
2D/	-ni-
2E/	-sti
=36-	=36-
2F/	Gra-
2D/	-ti-
=37-	=37-
!LO:TX:a:t=P:problem=kreska pseudotaktowa	!
1C	-am
=38-	=38-
0r	.
=39-	=39-
.	.
=40-	=40-
1r	.
=41-	=41-
2r	.
1d\	a-
=42-	=42-
.	.
2c\	-pud
=43-	=43-
1B-	.
=44-	=44-
1d	De-
=45-	=45-
!LO:TX:a:t=P:problem=kreska pseudotaktowa	!
0C	-um
=46-	=46-
.	.
=47-	=47-
0r	.
=48-	=48-
.	.
=49-	=49-
2r	.
1F/	ec-
=50-	=50-
.	.
2F/	-ce
=51-	=51-
1A	con-
=52-	=52-
2.B-\	-ci-
4B-\	-pi-
=53-	=53-
2F\	-es
2A\	et
=54-	=54-
2.G\	pa-
4G\	-ri-
=55-	=55-
!LO:TX:a:t=P:problem=kreska pseudotaktowa	!
1F	-es
!LO:LB:g=original	!
=56-	=56-
!LO:TX:a:t=2	!
0r	.
=57-	=57-
.	.
=58-	=58-
1.F	ec-
=59-	=59-
.	.
2F/	-ce
=60-	=60-
1A	con-
=61-	=61-
2.B-\	-ci-
4B-\	-pi-
=62-	=62-
2F/	-es
2A\	et
=63-	=63-
2.G\	pa-
4G\	-ri-
=64-	=64-
2F/	-es
2.F/	Fi-
=65-	=65-
.	.
4F/	-li-
!LO:TX:t=P:problem=wykreślone takty	!
!LO:TX:a:t=P:problem=kreska pseudotaktowa	!
2C/	-um
=66-	=66-
0r	.
=67-	=67-
.	.
=68-	=68-
2r	.
1c\	da-
=69-	=69-
.	.
2A\	-bit
!LO:LB:g=original	!
=70-	=70-
2F/	E-
2E/	-i
=71-	=71-
2F/	Do-
2F/	-mi-
=72-	=72-
2C/	-n(us)
1F/	Se-
=73-	=73-
.	.
2F/	-dem
=74-	=74-
1C	Da-
=75-	=75-
!LO:TX:a:t=P:problem=kreska pseudotaktowa	!
1F	-vid
=76-	=76-
1r	.
=77-	=77-
0F	da-
=78-	=78-
.	.
=79-	=79-
2D/	-bit
2B-\	E-
=80-	=80-
2A\	-i
2.B-\	Do-
=81-	=81-
.	.
4B-\	-mi-
1F\	-n(us)
=82-	=82-
.	.
1c\	Se-
=83-	=83-
.	.
2c\	-de(m)
=84-	=84-
1G	Da-
=85-	=85-
1C	-vid
=86-	=86-
1BB-	Pa-
=87-	=87-
1F	-tris
=88-	=88-
1C	E-
=89-	=89-
!LO:TX:a:t=P:problem=kreska pseudotaktowa	!
1F	-jus
=90-	=90-
00r	.
=91-	=91-
.	.
=92-	=92-
.	.
=93-	=93-
.	.
=94-	=94-
1r	.
=95-	=95-
2r	.
2.B-\	et
=96-	=96-
.	.
4A\	.
2G\	.
=97-	=97-
2F\	re-
2.G\	-gna-
=98-	=98-
.	.
4F/	.
2E-X/	.
=99-	=99-
2D/	-bit
!LO:LB:g=original	!
1G\	in
=100-	=100-
.	.
2d\	ae-
=101-	=101-
1B-	-ter-
=102-	=102-
2.F/	.
8E-/L	.
8D/J	.
=103-	=103-
1G	-num
=104-	=104-
1F	.
=105-	=105-
1D	et
=106-	=106-
1F	re-
=107-	=107-
1G	-gna-
=108-	=108-
2A\	-bit
2.B-\	et
=109-	=109-
.	.
4A\	.
2G\	.
=110-	=110-
2F\	re-
2.G\	-gna-
=111-	=111-
.	.
4F\	.
2E-X/	-bit
=112-	=112-
1D	.
=113-	=113-
2A\	in
2c\	ae-
=114-	=114-
1G	-ter-
=115-	=115-
00C;	-num
=116-	=116-
.	.
=117-	=117-
.	.
=118-	=118-
.	.
=119||	=119||
*M2/2	*
*met(c|)	*
*k[b-]	*
!LO:TX:a:t=P:problem=znaki BB- B-	!
2.F/	Ec-
4G/	.
=120-	=120-
4A/	.
4F/	.
!LO:TX:a:t=P:problem=kreska pseudotaktowa	!
2B-\	.
!LO:LB:g=original	!
=121-	=121-
2A\	-ce
2d\	An-
=122-	=122-
1c	-cil-
=123-	=123-
1B-	-la
=124-	=124-
!LO:TX:a:t=P:problem=kreska pseudotaktowa	!
1F	.
=125-	=125-
1r	.
=126-	=126-
1C	ec-
=127-	=127-
2.G\	-ce
4G\	An-
=128-	=128-
2C/	-cil-
1c\	.
=129-	=129-
.	.
2B-\	-la
=130-	=130-
2.A\	Do-
4A\	-mi-
=131-	=131-
!LO:TX:a:t=P:problem=kreska pseudotaktowa	!
1G	-ni
=132-	=132-
0r	.
=133-	=133-
.	.
=134-	=134-
*	*ij
1F	ec-
=135-	=135-
1c	-ce
=136-	=136-
2c\	An-
2A\	-cil-
=137-	=137-
2.B-\	.
4B-\	-la
=138-	=138-
2c\	Do-
2c\	-mi-
=139-	=139-
2G\	-ni
*	*Xij
2G\	An-
=140-	=140-
2.c\	-cil-
4B-\	.
=141-	=141-
4A\	.
4G\	.
2F/	.
=142-	=142-
1C	-la
=143-	=143-
2.F/	Do-
4F/	-mi-
!LO:LB:g=original	!
=144-	=144-
!LO:TX:a:t=P:problem=kreska pseudotaktowa	!
1C	-ni
=145-	=145-
00r	.
=146-	=146-
.	.
=147-	=147-
.	.
=148-	=148-
.	.
=149-	=149-
00r	.
=150-	=150-
.	.
=151-	=151-
.	.
=152-	=152-
.	.
=153-	=153-
00r	.
=154-	=154-
.	.
=155-	=155-
.	.
=156-	=156-
.	.
=157-	=157-
1r	.
=158-	=158-
2r	.
1c\	fi-
=159-	=159-
.	.
2A\	-at
=160-	=160-
2B-\	mi-
!LO:TX:a:t=P:problem=kreska pseudotaktowa	!
2A\	-hi
=161-	=161-
2r	.
2F\	se-
=162-	=162-
2B-\	-cun-
2F\	-dum
=163-	=163-
2G\	ver-
2A\	-bu(m)
=164-	=164-
1B-	tu-
=165-	=165-
!LO:TX:a:t=P:problem=kreska pseudotaktowa	!
0.F	-um
=166-	=166-
.	.
=167-	=167-
.	.
=168-	=168-
1r	.
=169-	=169-
2.F\	Qvo-
4F\	-mo-
=170-	=170-
2A\	-do
2c\	fi-
=171-	=171-
2B-\	-et
2.d\	i-
=172-	=172-
.	.
4c\	.
1c\	.
=173-	=173-
.	.
2B-\	.
=174-	=174-
2c\	-stud?
2F/	.
=175-	=175-
2B-\	qvo-
4B-\	-mo-
*custos:A	*
!LO:TX:a:t=P:problem=kreska pseudotaktowa	!
4B-\	-do
!LO:PB:g=original	!
=176-	=176-
2A\	fi-
2F\	-et
=177-	=177-
1G	i-
=178-	=178-
2C/	-stud
1F/	An-
=179-	=179-
.	.
2F/	-ge-
=180-	=180-
1F	-le
=181-	=181-
1B-	De-
=182-	=182-
!LO:TX:a:t=P:problem=kreska pseudotaktowa	!
0A	-i
=183-	=183-
.	.
=184-	=184-
00r	.
=185-	=185-
.	.
=186-	=186-
.	.
=187-	=187-
.	.
=188-	=188-
00r	.
=189-	=189-
.	.
=190-	=190-
.	.
=191-	=191-
.	.
=192-	=192-
00r	.
=193-	=193-
.	.
=194-	=194-
.	.
=195-	=195-
.	.
=196-	=196-
0r	.
=197-	=197-
.	.
=198-	=198-
0B-	Au-
=199-	=199-
.	.
=200-	=200-
2B-\	-di
2G\	Ma-
=201-	=201-
1c	-ri-
=202-	=202-
1F	-a
=203-	=203-
1G	vir-
=204-	=204-
1A	-go
=205-	=205-
2.B-\	Chri-
4A\	.
=206-	=206-
1G	.
=207-	=207-
2F/	-sti
2.F/	Spi-
=208-	=208-
.	.
4F/	-ri-
2F/	-tus
=209-	=209-
1B-	S(an)-
=210-	=210-
2F/	-ctus
1F/	su-
=211-	=211-
.	.
2C/	-p(er)-
=212-	=212-
2D/	-ve-
2E/	-ni-
!LO:LB:g=original	!
=213-	=213-
2F/	-et
2G/	in
=214-	=214-
0Fl	te
=215-	=215-
.	.
=218-	=218-
0r	.
=219-	=219-
.	.
=220-	=220-
1r	.
=221-	=221-
2r	.
2C/	et
=222-	=222-
1F	vir-
=223-	=223-
2G\	-tus
2G\	al-
=224-	=224-
2.c\	-tiſ-
4c\	-si-
=225-	=225-
!LO:TX:a:t=P:problem=kreska pseudotaktowa	!
1C	-mi
=226-	=226-
!LO:TX:t=P:problem=nad nutą główka nuty C i znaczek |.|	!
*	*ij
1F	et
=227-	=227-
1B-	vir-
=228-	=228-
2c\	-tus
2c\	al-
=229-	=229-
4d\	-tiſ-
4c\	.
4B-\	.
4A\	.
=230-	=230-
2G\	.
2G\	-si-
=231-	=231-
!LO:TX:a:t=P:problem=kreska pseudotaktowa	!
1F	-mi
*	*Xij
=232-	=232-
2r	.
1B-\	o-
=233-	=233-
.	.
2A\	-bum-
=234-	=234-
1c	-bra-
=235-	=235-
1d	-bit
=236-	=236-
1c	ti-
=237-	=237-
!LO:TX:a:t=P:problem=kreska pseudotaktowa	!
1c	-bi
=238-	=238-
!LO:TX:a:t=P:problem=kreska pseudotaktowa	!
0r	.
=239-	=239-
.	.
!LO:LB:g=original	!
=240-	=240-
1c	o-
=241-	=241-
2A\	-bum-
1B-\	-bra-
=242-	=242-
.	.
2A\	-bit
=243-	=243-
4F/	.
4E/	.
2D/	ti-
=244-	=244-
0C	.
=245-	=245-
.	.
=246-	=246-
00F;	-bi.
=247-	=247-
.	.
=248-	=248-
.	.
=249-	=249-
.	.
*clefC4	*
=250||	=250||
*M2/2	*
*met(c|)	*
00r	.
=251-	=251-
.	.
=252-	=252-
.	.
=253-	=253-
.	.
=254-	=254-
00r	.
=255-	=255-
.	.
=256-	=256-
.	.
=257-	=257-
.	.
=258-	=258-
0c	Be-
=259-	=259-
.	.
=260-	=260-
1A	-a-
=261-	=261-
1G	-ta
=262-	=262-
!LO:TX:a:t=P:problem=kreska pseudotaktowa	!
1c	es
=263-	=263-
2r	.
2E/	Vir-
=264-	=264-
2E/	-go
!LO:TX:a:t=P:problem=kreska pseudotaktowa	!
2G/	Ma-
=265-	=265-
4F/	-ri-
4G/	.
4A/	.
4B-/	.
=266-	=266-
4c\	.
4d\	.
2.e\	.
=267-	=267-
.	.
4d\	.
4c\	.
4B-\	.
=268-	=268-
2A/	.
2G/	.
=269-	=269-
!LO:TX:a:t=P:problem=kreska pseudotaktowa	!
1F	-a
!LO:LB:g=original	!
=270-	=270-
1r	.
=271-	=271-
1c	Vir-
=272-	=272-
2F/	-go
2C/	Ma-
=273-	=273-
1G	-ri-
=274-	=274-
!LO:TX:a:t=P:problem=kreska pseudotaktowa	!
0C	-a
=275-	=275-
.	.
=276-	=276-
1r	.
=277-	=277-
2r	.
2G/	Qvae
=278-	=278-
1c	cre-
=279-	=279-
2B-\	-di-
1c\	-di-
=280-	=280-
.	.
!LO:TX:a:t=P:problem=kreska pseudotaktowa	!
2B-\	-sti
=281-	=281-
2.c\	Do-
4B-\	.
=282-	=282-
4A\	.
4G/	.
1F/	.
=283-	=283-
.	.
!LO:TX:a:t=P:problem=kreska pseudotaktowa	!
2D/	.
=284-	=284-
2.E/	.
4F/	.
=285-	=285-
2G/	.
2A/	-mi-
=286-	=286-
!LO:TX:a:t=P:problem=oddech jako rozdzielacz słów	!
2G,</	-no,
*	*ij
2G/	Qvae
=287-	=287-
2E/	cre-
2G/	-di-
=288-	=288-
2D/	-di-
2C#X/	-sti
=289-	=289-
2D/	Do-
2A/	-mi-
=290-	=290-
!LO:TX:a:t=P:problem=kreska pseudotaktowa	!
0D	-no
*	*Xij
=291-	=291-
.	.
=292-	=292-
!LO:TX:a:t=P:problem=kreska pseudotaktowa	!
0r	.
=293-	=293-
.	.
!LO:LB:g=original	!
=294-	=294-
2r	.
2Cny/	per-
=295-	=295-
1.G	-fi-
=296-	=296-
.	.
2d\	-ci-
=297-	=297-
2c\	-en-
2B-\	-tur
=298-	=298-
1A	in
=299-	=299-
!LO:TX:a:t=P:problem=kreska pseudotaktowa	!
0.D	te
=300-	=300-
.	.
=301-	=301-
.	.
=302-	=302-
1r	.
=303-	=303-
2r	.
*	*ij
2C/	per-
=304-	=304-
2G/	-fi-
2G/	-ci-
=305-	=305-
1c	-en-
=306-	=306-
2.c\	-tur
8B-\L	.
8A\J	.
=307-	=307-
2G/	in
2F/	.
=308-	=308-
!LO:TX:a:t=P:problem=kreska pseudotaktowa	!
1G	te
*	*Xij
=309-	=309-
00r	.
=310-	=310-
.	.
=311-	=311-
.	.
=312-	=312-
.	.
=313-	=313-
1E	qvae
=314-	=314-
2.F/	di-
4E/	.
=315-	=315-
2D/	-cta
2C/	.
=316-	=316-
1D	s(un)t
=317-	=317-
1A	ti-
=318-	=318-
!LO:TX:a:t=P:problem=kreska pseudotaktowa	!
1G	-bi
=319-	=319-
2r	.
2G/	qvae
!LO:LB:g=original	!
=320-	=320-
1G	di-
=321-	=321-
1A	-cta
=322-	=322-
1G	sunt,
=323-	=323-
2r	.
2c\	qvae
=324-	=324-
2B-\	di-
!LO:TX:a:t=P:problem=kreska pseudotaktowa	!
2c\	-cta
=325-	=325-
2A\	s(un)t
2B-\	.
=326-	=326-
4c\	Ti-
4B-\	.
4A\	.
4G\	.
=327-	=327-
4A/	.
4G/	.
4F/	.
4E/	.
=328-	=328-
1F	.
=329-	=329-
1E	.
=330-	=330-
!LO:TX:a:t=P:problem=kreska pseudotaktowa	!
1A	-bi
=331-	=331-
0r	.
=332-	=332-
.	.
=333-	=333-
2r	.
2c\	qvae
=334-	=334-
2d\	di-
2e\	-cta
=335-	=335-
2f\	.
2.d\	Ti-
=336-	=336-
.	.
4c\	.
4A\	.
4B-\	.
=337-	=337-
2c\	.
2d\	.
=338-	=338-
!LO:TX:a:t=P:problem=kreska pseudotaktowa	!
1A	-bi
!LO:LB:g=original	!
=339-	=339-
0r	.
=340-	=340-
.	.
=341-	=341-
2r	.
2G/	a
=342-	=342-
2E/	Do-
2F/	.
=343-	=343-
2G/	-mi-
2A/	.
=344-	=344-
!LO:TX:a:t=P:problem=kreska pseudotaktowa	!
1D	-no
=345-	=345-
0r	.
=346-	=346-
.	.
=347-	=347-
2r	.
2A/	al-
=348-	=348-
2B-\	-le-
2c\	.
=349-	=349-
1d	-lu-
=350-	=350-
!LO:TX:a:t=P:problem=kreska pseudotaktowa	!
1G	-ia
=351-	=351-
1r	.
=352-	=352-
*	*ij
1D	al-
=353-	=353-
1G	-le-
=354-	=354-
1c	-lu-
=355-	=355-
2F/	-ia
!LO:TX:t=P:problem=2D poprawione na 2C	!
!LO:TX:a:t=c	!
2C/	al-
=356-	=356-
2G/	-le-
2G/	-lu-
=357-	=357-
!LO:TX:a:t=P:problem=kreska pseudotaktowa	!
1D	-ia
=358-	=358-
2r	.
2F/	al-
=359-	=359-
2G/	-le-
2D/	.
=360-	=360-
1G	-lu-
=361-	=361-
1E	-ja
=362-	=362-
2D/	al-
1d\	-le-
=363-	=363-
.	.
2G/	.
=364-	=364-
0D	-lu-
=365-	=365-
.	.
=366-	=366-
00G;	-ia
*	*Xij
=367-	=367-
.	.
=368-	=368-
.	.
=369-	=369-
.	.
==	==
*-	*-
!!!RDF**kern: < = below
!!!ENC: Marta Lawrence
!!!END: 2021-02-19
!!!ENC: Katarzyna Serwa
!!!END: 2021-02-14
